brandFactory_export/3.Masa/Fonendoescopio medico _3Masa.svg

<?xml version="1.0" encoding="UTF-8"?>
<svg width="24px" height="24px" viewBox="0 0 24 24" version="1.1" xmlns="http://www.w3.org/2000/svg" xmlns:xlink="http://www.w3.org/1999/xlink">
    <title>3.Masa/Fonendoescopio medico _3Masa</title>
    <g id="Symbols" stroke="none" stroke-width="1" fill="none" fill-rule="evenodd">
        <g id="3.Masa/Fonendoescopio-medico-_3Masa" fill="#5CB615" fill-rule="nonzero">
            <path d="M21.0756303,13.9596639 L21.0151261,13.9596639 C20.8806723,13.9563025 20.3798319,13.9092437 20.3798319,13.3008403 C20.3798319,12.692437 20.8773109,12.6487395 21.0084034,12.6487395 L21.0722689,12.6487395 C21.2033613,12.6521008 21.707563,12.702521 21.707563,13.307563 C21.7109244,13.9092437 21.2033613,13.9563025 21.0756303,13.9596639 M21.7546218,10.8067227 L21.7546218,8.71932773 C21.7546218,5.95630252 19.7478992,4.92436975 18.0235294,4.88403361 C17.9260504,4.88403361 17.8117647,4.88403361 17.7042017,4.88067227 C15.9932773,4.89411765 14,5.90252101 14,8.71932773 L14.0033613,18.5815126 C14.0033613,21.7579832 11.5865546,22.1478992 10.5445378,22.1647059 C10.4336134,22.1680672 10.2957983,22.1680672 10.1714286,22.1680672 C9.13277311,22.1512605 6.71932773,21.7714286 6.71932773,18.5546218 L6.71932773,16.3260504 L7.04201681,16.3260504 C7.38487395,16.3260504 7.67394958,16.0235294 7.67394958,15.6672269 L7.67394958,14.2453782 C10.3663866,13.5966387 11.8285714,11.3680672 11.8285714,7.79159664 C11.8252101,7.52268908 11.6067227,7.30420168 11.3378151,7.30756303 L11.189916,7.30756303 L11.189916,3.2907563 C11.1932773,3.12941176 11.2201681,1.69747899 10.3932773,0.853781513 C10.010084,0.463865546 9.48235294,0.248739496 8.93781513,0.258823529 C8.92436975,0.258823529 8.91428571,0.265546218 8.89747899,0.265546218 C8.66554622,0.0268907563 8.33277311,0 8.20840336,0 L8.11428571,0 C7.92268908,0.00336134454 7.17310924,0.0773109244 7.17310924,0.971428571 C7.17310924,1.86554622 7.92268908,1.93613445 8.11092437,1.9394958 L8.20168067,1.9394958 C8.31932773,1.93613445 8.62857143,1.9092437 8.8605042,1.69747899 C8.88739496,1.70084034 8.91092437,1.71428571 8.93781513,1.71428571 C9.1092437,1.71428571 9.22689076,1.75798319 9.33109244,1.86218487 C9.66722689,2.20168067 9.7210084,2.99159664 9.71428571,3.26386555 L9.71428571,7.31092437 C9.45546218,7.3210084 9.25042017,7.53277311 9.24705882,7.79159664 C9.24705882,10.2184874 7.76134454,12.1210084 5.86218487,12.1210084 C3.98319328,12.1210084 2.61848739,10.2991597 2.61848739,7.79159664 C2.61512605,7.54621849 2.4302521,7.34453782 2.18487395,7.31764706 L2.18487395,3.24369748 C2.17815126,2.99495798 2.23529412,2.20504202 2.56806723,1.86554622 C2.66890756,1.76134454 2.78991597,1.71428571 2.96134454,1.71428571 C2.98823529,1.71428571 3.01176471,1.70084034 3.03865546,1.69747899 C3.27058824,1.9092437 3.57647059,1.93613445 3.69411765,1.9394958 L3.78487395,1.9394958 C3.97310924,1.93613445 4.72268908,1.86554622 4.72268908,0.971428571 C4.72268908,0.0773109244 3.97310924,0.00336134454 3.77815126,0 L3.68403361,0 C3.55966387,0.00336134454 3.22689076,0.0268907563 2.99495798,0.265546218 C2.98151261,0.265546218 2.96806723,0.258823529 2.95462185,0.258823529 C2.38319328,0.258823529 1.88235294,0.463865546 1.49915966,0.853781513 C0.682352941,1.69747899 0.705882353,3.13277311 0.709243697,3.26722689 L0.709243697,7.30756303 L0.490756303,7.30756303 C0.218487395,7.30756303 0,7.52268908 0,7.79159664 C0,11.4285714 1.51260504,13.6739496 4.29579832,14.2756303 L4.29579832,15.6638655 C4.29579832,16.0235294 4.58487395,16.3226891 4.92773109,16.3226891 L5.24369748,16.3226891 L5.24369748,18.5546218 C5.24369748,22.2420168 7.77815126,23.589916 10.1512605,23.6235294 L10.3092437,23.6235294 C10.4033613,23.6235294 10.497479,23.6235294 10.5747899,23.6201681 C12.8369748,23.5798319 15.4789916,22.2352941 15.4789916,18.5815126 L15.4789916,8.78655462 L15.4756303,8.69915966 C15.4756303,6.65882353 16.8806723,6.34285714 17.7210084,6.33613445 L17.9932773,6.3394958 C18.8470588,6.35966387 20.2823529,6.69915966 20.2823529,8.71932773 L20.2823529,10.7831933 C19.5092437,10.9411765 18.389916,11.4823529 18.389916,13.297479 C18.389916,15.697479 20.3630252,15.8857143 20.887395,15.892437 L20.9747899,15.892437 C21.0285714,15.892437 21.0789916,15.892437 21.1260504,15.8890756 C21.6235294,15.8823529 23.6235294,15.6941176 23.6235294,13.3109244 C23.6235294,11.5495798 22.5310924,10.9848739 21.7546218,10.8067227" id="Fonendoescopio-medico-_3Masa"></path>
        </g>
    </g>
</svg>

<svg width="24" height="24" viewBox="0 0 24 24" xmlns="http://www.w3.org/2000/svg"><path d="M21.076 13.96h-.06c-.135-.004-.636-.05-.636-.66 0-.608.497-.651.628-.651h.064c.131.003.636.054.636.659.003.601-.505.648-.632.652m.679-3.153V8.719c0-2.763-2.007-3.795-3.731-3.835-.098 0-.212 0-.32-.003C15.994 4.894 14 5.903 14 8.719l.003 9.863c0 3.176-2.416 3.566-3.458 3.583-.111.003-.25.003-.374.003-1.038-.017-3.452-.397-3.452-3.613v-2.229h.323c.343 0 .632-.302.632-.659v-1.422c2.692-.648 4.155-2.877 4.155-6.453a.488.488 0 00-.491-.484h-.148V3.29c.003-.162.03-1.594-.797-2.437A1.992 1.992 0 008.938.259c-.014 0-.024.007-.04.007C8.665.026 8.332 0 8.207 0h-.094c-.191.003-.94.077-.94.971 0 .895.749.965.937.968h.09c.118-.003.428-.03.66-.242.026.004.05.017.077.017.171 0 .289.044.393.148.336.34.39 1.13.383 1.402V7.31a.487.487 0 00-.467.48c0 2.427-1.486 4.33-3.385 4.33-1.879 0-3.244-1.822-3.244-4.33a.483.483 0 00-.433-.473V3.244c-.007-.249.05-1.039.383-1.378a.505.505 0 01.393-.152c.027 0 .05-.013.078-.017.232.212.537.24.655.242h.09c.19-.003.939-.073.939-.968 0-.894-.75-.968-.945-.971h-.094c-.124.003-.457.027-.689.266-.013 0-.027-.007-.04-.007-.572 0-1.073.205-1.456.595-.817.843-.793 2.279-.79 2.413v4.04H.491A.486.486 0 000 7.793c0 3.637 1.513 5.882 4.296 6.484v1.388c0 .36.289.659.632.659h.316v2.232c0 3.687 2.534 5.035 4.907 5.069h.158c.094 0 .188 0 .266-.004 2.262-.04 4.904-1.385 4.904-5.038V8.787l-.003-.088c0-2.04 1.405-2.356 2.245-2.363l.272.003c.854.02 2.29.36 2.29 2.38v2.064c-.774.158-1.893.7-1.893 2.514 0 2.4 1.973 2.589 2.497 2.595h.088c.054 0 .104 0 .151-.003.498-.007 2.498-.195 2.498-2.578 0-1.761-1.093-2.326-1.87-2.504" fill="#5CB615" fill-rule="nonzero"/></svg>
